neru-light-classic/22x22/actions/timeline-use-zone-off.svg

<svg xmlns="http://www.w3.org/2000/svg" width="22" height="22"><defs><style id="current-color-scheme" type="text/css">.ColorScheme-Text{color:#1e333d}</style></defs><path class="ColorScheme-Text" d="M9 3v3l2 2V3H9zm8 2v4h-2V6h-2v3h-1l4 4h3V5h-2zM5 8v1H3v4h7L5 8zm-2 6v5h1v-5H3zm1 2.5L7 19v-5l-3 2.5zM18 14v1l1 1v-2h-1zm-3 4v1l.545-.455L15 18zm3.5.5l.5.5v-.5h-.5z" fill="currentColor" opacity=".3"/><path class="ColorScheme-Text" d="M2 2v1.5L18.5 20H20v-1.5L3.5 2z" fill="currentColor"/></svg>

<svg xmlns="http://www.w3.org/2000/svg" width="22" height="22" version="1.1">
 <defs>
  <style id="current-color-scheme" type="text/css">
   .ColorScheme-Text { color:#1e333d; } .ColorScheme-Highlight { color:#3fb7ff; }
  </style>
 </defs>
 <path style="fill:currentColor;opacity:0.3" class="ColorScheme-Text" d="M 9 3 L 9 6 L 11 8 L 11 3 L 9 3 z M 17 5 L 17 9 L 15 9 L 15 6 L 13 6 L 13 9 L 12 9 L 16 13 L 19 13 L 19 5 L 17 5 z M 5 8 L 5 9 L 3 9 L 3 13 L 10 13 L 5 8 z M 3 14 L 3 19 L 4 19 L 4 16.5 L 4 14 L 3 14 z M 4 16.5 L 7 19 L 7 14 L 4 16.5 z M 18 14 L 18 15 L 19 16 L 19 14 L 18 14 z M 15 18 L 15 19 L 15.545 18.545 L 15 18 z M 18.5 18.5 L 19 19 L 19 18.5 L 18.5 18.5 z"/>
 <path style="fill:currentColor" class="ColorScheme-Text" d="M 2,2 V 3.5 L 18.5,20 H 20 V 18.5 L 3.5,2 Z"/>
</svg>
